!!!COM: Palestrina, Giovanni Perluigi da
!!!OPR: Missa Illumina oculos meos
!!!OTL: Agnus I
**kern	**kern	**kern	**kern	**kern	**kern
*Ibass	*Ibarit	*Itenor	*Itenor	*Icalto	*Icant
!Bassus	!Baritone	!Tenor 2	!Tenor 1	!Altus	!Cantus
*clefF4	*clefF4	*clefGv2	*clefGv2	*clefG2	*clefG2
*k[]	*k[]	*k[]	*k[]	*k[]	*k[]
*E:phr	*E:phr	*E:phr	*E:phr	*E:phr	*E:phr
*M4/2	*M4/2	*M4/2	*M4/2	*M4/2	*M4/2
=1	=1	=1	=1	=1	=1
1r	0r	0E	0B	0r	0r
1E	.	.	.	.	.
=2	=2	=2	=2	=2	=2
1E	0r	1G	1B	0r	[0e
1AA	.	1A	1c	.	.
=3	=3	=3	=3	=3	=3
0E	1r	2.G	1B	0e	1e]
.	.	4A	.	.	.
.	1E	2B	2.G	.	[1g
.	.	2c	.	.	.
.	.	.	4A	.	.
=4	=4	=4	=4	=4	=4
0r	1E	2B	2B	1e	1g]
.	.	2E	1c	.	.
.	1F	1r	.	1A	1a
.	.	.	4B	.	.
.	.	.	4A	.	.
=5	=5	=5	=5	=5	=5
0r	1.E	0r	1B	1.e	2.g
.	.	.	.	.	4a
.	.	.	1E	.	2b
.	2C	.	.	2e	2cc
=6	=6	=6	=6	=6	=6
0r	2G	2r	0r	2d	2b
.	2A	1e	.	2c	1a
.	[1E	.	.	1B	.
.	.	2e	.	.	4g#
.	.	.	.	.	4f#
=7	=7	=7	=7	=7	=7
0E	1E]	1e	0B	0r	2.g#
.	.	.	.	.	4a
.	1r	2e	.	.	[1b
.	.	2E	.	.	.
=8	=8	=8	=8	=8	=8
1E	0r	1G	1B	2r	1b]
.	.	.	.	1e	.
1AA	.	1A	1c	.	1r
.	.	.	.	2e	.
=9	=9	=9	=9	=9	=9
1.E	0r	2.G	1B	0e	2r
.	.	.	.	.	2e
.	.	4A	.	.	.
.	.	4B	2E	.	1g
.	.	4c	.	.	.
2E	.	[2B	2G	.	.
=10	=10	=10	=10	=10	=10
2D	0r	4B]	2F	1A	1a
.	.	4A	.	.	.
2C	.	1A	2E	.	.
1BB	.	.	1D	1d	1b
.	.	2G#	.	.	.
=11	=11	=11	=11	=11	=11
0AA	2r	1A	1E	2c	1cc
.	2A	.	.	2.e	.
.	2A	1r	1e	.	2a
.	.	.	.	4d	.
.	[2A	.	.	4c	[2cc
.	.	.	.	4B	.
=12	=12	=12	=12	=12	=12
0r	4A]	0r	1e	4A	4cc]
.	4G	.	.	4B	4b
.	2E	.	.	1c	2g
.	1F	.	1A	.	1a
.	.	.	.	4B	.
.	.	.	.	4A	.
=13	=13	=13	=13	=13	=13
0r	1.E	0r	1.e	1B	2.g
.	.	.	.	.	4a
.	.	.	.	2G	2b
.	2C	.	2e	2g	2cc
=14	=14	=14	=14	=14	=14
0r	2G	0r	2d	4g	2b
.	.	.	.	4f	.
.	2A	.	2c	4e	1a
.	.	.	.	4d	.
.	1E	.	1B	1e	.
.	.	.	.	.	2g#
=15	=15	=15	=15	=15	=15
1AA	0A	2r	1A	1c#	[0a
.	.	2E	.	.	.
1D	.	2.F	1r	2r	.
.	.	.	.	2d	.
.	.	4G	.	.	.
=16	=16	=16	=16	=16	=16
1D	0r	4A	2r	1f	1a]
.	.	4B-	.	.	.
.	.	1A	2A	.	.
1C	.	.	1c	1e	1r
.	.	[2G	.	.	.
=17	=17	=17	=17	=17	=17
1.D	0r	2G]	2B	1.d	0r
.	.	2F	2A	.	.
.	.	2F	1A	.	.
4C	.	4E	.	2e	.
4BB	.	4D	.	.	.
=18	=18	=18	=18	=18	=18
2C	0r	2E	1A	2e	1a
2D	.	1A	.	2d	.
1BB	.	.	1D	1d	1dd
.	.	2G#	.	.	.
=19	=19	=19	=19	=19	=19
0AA	2r	1A	2E	2r	1cc
.	2E	.	2A	1e	.
.	1A	1r	1c	.	2a
.	.	.	.	4d	[2cc
.	.	.	.	4c	.
=20	=20	=20	=20	=20	=20
0r	1A	0r	1c	2e	2cc]
.	.	.	.	2f	4b
.	.	.	.	.	4a
.	1G	.	2d	1g	1b
.	.	.	[2e	.	.
=21	=21	=21	=21	=21	=21
0r	1.A	0r	4e]	2.c	2a
.	.	.	4d	.	.
.	.	.	4c	.	1cc
.	.	.	4B	4d	.
.	.	.	2A	[1e	.
.	4G	.	2B	.	4b
.	4F	.	.	.	4a
=22	=22	=22	=22	=22	=22
0r	2G	1r	2E	1e]	2b
.	2A	.	2.e	.	2.cc
.	1F	1A	.	1r	.
.	.	.	4d	.	4b
.	.	.	2d	.	[2a
=23	=23	=23	=23	=23	=23
1r	0E	1e	2c	1r	2a]
.	.	.	4B	.	4g#
.	.	.	4A	.	4f#
1E	.	1e	1B	2r	1g#
.	.	.	.	[2e	.
=24	=24	=24	=24	=24	=24
1A	0r	0c	1A	2e]	2a
.	.	.	.	1f	1a
1A	.	.	1r	.	.
.	.	.	.	2e	[2cc
=25	=25	=25	=25	=25	=25
1G	0r	1d	2r	1g	2cc]
.	.	.	2B	.	2b
[1A	.	2c	2c	[1e	2a
.	.	4A	2c	.	[2cc
.	.	4B	.	.	.
=26	=26	=26	=26	=26	=26
2A]	0r	4c	2A	1e]	2cc]
.	.	4d	.	.	.
4G#	.	2.e	2B	.	4b
4F#	.	.	.	.	4a
2G#	.	.	2E	2e	2b
.	.	4d	.	.	.
2A	.	4c	[2A	[2e	[2cc
.	.	4B	.	.	.
=27	=27	=27	=27	=27	=27
1F	1r	1A	2A]	4e]	4cc]
.	.	.	.	8d	4b
.	.	.	.	8c	.
.	.	.	2D	2d	1a
1E	2r	1B	1r	2.e	.
.	[2E	.	.	.	2g#
.	.	.	.	4d	.
=28	=28	=28	=28	=28	=28
1AA	2E]	1A	2r	2c	2.a
.	2C	.	1A	2A	.
.	.	.	.	.	4g
1r	2D	1r	.	1B	2f
.	2E	.	2G	.	[2e
=29	=29	=29	=29	=29	=29
0r	1F	2r	1A	0r	2e]
.	.	1A	.	.	2d
.	1E	.	1B	.	[1e
.	.	2G	.	.	.
=30	=30	=30	=30	=30	=30
2r	0r	2A	2c	0r	2e]
1E	.	2B	2B	.	1g
.	.	2.c	1e	.	.
2C	.	.	.	.	2e
.	.	4B	.	.	.
=31	=31	=31	=31	=31	=31
2D	0r	2A	2d	2r	2f
2E	.	2G	4c	1c	2g
.	.	.	4B	.	.
1F	.	2c	1A	.	1a
.	.	2d	.	2A	.
=32	=32	=32	=32	=32	=32
1E	1r	1e	2r	2B	1g
.	.	.	2e	2c	.
1r	[1G	2r	2d	1d	[1b
.	.	2d	4B	.	.
.	.	.	4c	.	.
=33	=33	=33	=33	=33	=33
0r	2G]	2B	4d	1G	2b]
.	.	.	8c	.	.
.	.	.	8d	.	.
.	2E	1c	2e	.	2g
.	2F	.	1d	2r	2a
.	2G	2B	.	2g	2b
=34	=34	=34	=34	=34	=34
1r	1A	4A	2c	2e	1cc
.	.	4B	.	.	.
.	.	4c	2A	2f	.
.	.	4d	.	.	.
[1E	[1G	1e	2r	4g	2b
.	.	.	.	4f	.
.	.	.	[2B	4e	[2g
.	.	.	.	4d	.
=35	=35	=35	=35	=35	=35
2E]	1G]	1E	2B]	1e	2g]
2C	.	.	2c	.	2e
2D	1r	1r	2A	2d	2f
2E	.	.	2G	4c	2g
.	.	.	.	4B	.
=36	=36	=36	=36	=36	=36
1F	2r	0r	2c	1A	2.a
.	1A	.	2d	.	.
.	.	.	.	.	4b
1E	.	.	2.e	2r	2cc
.	2G	.	.	[2e	2b
.	.	.	4d	.	.
=37	=37	=37	=37	=37	=37
0r	2A	0r	2c	2e]	1r
.	2B	.	2B	2d	.
.	2c	.	1A	2e	2r
.	2A	.	.	2f	[2a
=38	=38	=38	=38	=38	=38
0r	2.c	2r	0r	2.e	2a]
.	.	1c	.	.	2g
.	4B	.	.	8d	.
.	.	.	.	8e	.
.	2A	.	.	4f	2a
.	.	.	.	4e	.
.	2G	2B	.	[2e	2b
=39	=39	=39	=39	=39	=39
1r	1F	1A	1r	2e]	2cc
.	.	.	.	2d	4b
.	.	.	.	.	4a
2r	[1E	2B	2r	[1e	4g
.	.	.	.	.	4a
[2E	.	4G	2B	.	4b
.	.	4A	.	.	4cc
=40	=40	=40	=40	=40	=40
2E]	1E]	4B	2G	1e]	2b
.	.	8A	.	.	.
.	.	8B	.	.	.
2C	.	2c	2A	.	1a
2D	1r	1B	1B	2r	.
2E	.	.	.	[2e	2g#
=41	=41	=41	=41	=41	=41
2.AA	2r	[0A	4c	2e]	[0a
.	.	.	4d	.	.
.	1A	.	1e	2c	.
4BB	.	.	.	.	.
2C	.	.	.	2e	.
2D	2F	.	[2d	2f	.
=42	=42	=42	=42	=42	=42
1AA	2A	1A_	2d]	1e	1a_
.	2E	.	2c#	.	.
1D	1F	1A_	1d	1d	1a_
=43	=43	=43	=43	=43	=43
0AA	0E	0A]	0c#	0e	0a]
==	==	==	==	==	==
*-	*-	*-	*-	*-	*-
!!!CDT: 1525/^1526/-1594/2/2
!!!OCY: Italia
!!!AGN: Mass (Parody)
!!!AST: renaissance, vocal
!!!ASW: Motet (Silva)
!!!PWK: Masses, Book 10
!!!RNB: Cadence finals: G,C,A
!!!YOR: Le Opere Complete, v. 27, p. 155
!!!YOO: Rome, Italy: Fratelli Scalera
!!!END: 1992//
!!!EED: John Miller
!!!YEC: Copyright 2000, John Miller
!!!YEN: United States of America
!!!YEM: Rights to all derivative electronic formats reserved.
!!!YEM: Refer to licensing agreement for further details.
!!!YEM: This file must be accompanied by the licensing agreement.
!!!YEM: A copy of the licensing agreement may be found at http://www.music-cog.ohio-state.edu/HumdrumDatabases/Palestrina/license.txt
!!!EMD: converted to Humdrum by Bret Aarden
